X: 328
T:Wellington's Advance
% Nottingham Music Database
S:Trad, arr Phil Rowe
M:6/8
K:Am
E|"Am"E "3" AA A^GA|cBA c2d|"C"efe e^fg|"G"d "3" BG G^FG|
"Am"EAA A^GA|"Am"cBA c2d|"E7"efe d "3" cB|"Am"cAA A2::(3e/2^f/2g/2|
"Am"a "3" ee aee|a "3" ed c "3" BA|"G" "3" BAB g^fe|d "3" BG G^FG|
"Am"eaa a^ga|"C"egg g^fg|"E7"efe d "3" cB|"Am"cAA A2:|<end>
<start>
